static/assets/paypal.svg

<svg fill="none" height="90" viewBox="0 0 90 90" width="90" xmlns="http://www.w3.org/2000/svg"><rect fill="#fff" height="88" rx="9" width="88" x="1" y="1"/><g fill="#253b80"><path d="m25.2116 61.8858h-4.0262c-.2755 0-.5098.1958-.5528.4618l-1.6284 10.097c-.0324.1992.1254.3789.3321.3789h1.9221c.2755 0 .5098-.1958.5528-.4624l.4392-2.7233c.0424-.2666.2773-.4623.5522-.4623h1.2745c2.6522 0 4.1828-1.2552 4.5826-3.7425.1801-1.0881.0076-1.9431-.5134-2.5419-.5722-.6575-1.5872-1.0053-2.9347-1.0053zm.4645 3.6877c-.2202 1.4129-1.324 1.4129-2.3914 1.4129h-.6075l.4262-2.6387c.0253-.1594.1666-.2769.3315-.2769h.2784c.7271 0 1.4129 0 1.7673.4053.2114.2419.2761.6011.1955 1.0974z"/><path d="m37.2468 65.528h-1.928c-.1643 0-.3062.1175-.3315.277l-.0853.5274-.1349-.1912c-.4174-.5924-1.3481-.7905-2.2771-.7905-2.1305 0-3.9502 1.5782-4.3046 3.7919-.1843 1.1044.0777 2.1603.7182 2.8967.5875.6771 1.4282.9592 2.4284.9592 1.7167 0 2.6686-1.0796 2.6686-1.0796l-.0859.524c-.0324.2004.1254.38.3308.38h1.7367c.2761 0 .5093-.1958.5528-.4623l1.042-6.4537c.033-.1986-.1242-.3789-.3302-.3789zm-2.6875 3.6699c-.186 1.0773-1.0602 1.8004-2.1753 1.8004-.5598 0-1.0072-.1756-1.2945-.5084-.285-.3305-.3933-.8009-.3026-1.3248.1736-1.068 1.0626-1.8148 2.1605-1.8148.5475 0 .9926.1779 1.2858.5136.2937.3391.4103.8124.3261 1.334z"/><path d="m47.5149 65.528h-1.9375c-.1848 0-.3585.0898-.4633.2401l-2.6721 3.8495-1.1327-3.6992c-.0712-.2315-.2897-.3904-.5369-.3904h-1.9039c-.2314 0-.3921.2211-.3185.4341l2.1341 6.1249-2.0063 2.77c-.1578.2182.0011.5182.2737.5182h1.9351c.1837 0 .3556-.0875.4598-.2349l6.444-9.097c.1542-.2176-.0041-.5153-.2755-.5153z"/></g><path d="m53.9296 61.8858h-4.0268c-.2749 0-.5092.1958-.5522.4618l-1.6284 10.097c-.0323.1992.1254.3789.3309.3789h2.0664c.1919 0 .3561-.1371.3862-.3236l.4621-2.8621c.0424-.2666.2773-.4623.5522-.4623h1.274c2.6527 0 4.1828-1.2552 4.5831-3.7425.1807-1.0881.007-1.9431-.514-2.5419-.5716-.6575-1.5859-1.0053-2.9335-1.0053zm.4645 3.6877c-.2196 1.4129-1.3234 1.4129-2.3913 1.4129h-.607l.4268-2.6387c.0253-.1594.1654-.2769.3309-.2769h.2784c.7265 0 1.4129 0 1.7673.4053.2114.2419.2755.6011.1949 1.0974z" fill="#179bd7"/><path d="m65.964 65.528h-1.9269c-.1654 0-.3061.1175-.3308.277l-.0854.5274-.1354-.1912c-.4174-.5924-1.3475-.7905-2.2765-.7905-2.1306 0-3.9497 1.5782-4.3041 3.7919-.1837 1.1044.0771 2.1603.7177 2.8967.5887.6771 1.4282.9592 2.4284.9592 1.7167 0 2.6686-1.0796 2.6686-1.0796l-.0859.524c-.0324.2004.1254.38.332.38h1.7361c.2749 0 .5092-.1958.5522-.4623l1.0426-6.4537c.0318-.1986-.126-.3789-.3326-.3789zm-2.6875 3.6699c-.1848 1.0773-1.0602 1.8004-2.1752 1.8004-.5587 0-1.0073-.1756-1.2946-.5084-.285-.3305-.3921-.8009-.3026-1.3248.1748-1.068 1.0626-1.8148 2.1605-1.8148.5475 0 .9926.1779 1.2858.5136.2949.3391.4115.8124.3261 1.334z" fill="#179bd7"/><path d="m68.2371 62.1627-1.6526 10.2819c-.0323.1992.1254.3788.3309.3788h1.6613c.2761 0 .5105-.1957.5528-.4623l1.6296-10.0965c.0324-.1992-.1254-.3794-.3309-.3794h-1.8603c-.1642.0006-.3055.118-.3308.2775z" fill="#179bd7"/><path d="m37.4599 52 .7125-4.3695-1.5871-.0355h-7.5785l5.2667-32.2425c.0163-.0973.0695-.1881.1471-.2525.0777-.0645.1771-.1.2806-.1h12.7784c4.2422 0 7.1698.8523 8.6982 2.5346.7166.7892 1.173 1.6139 1.3937 2.5215.2316.9523.2357 2.09.0095 3.4777l-.0163.1013v.8891l.7165.392c.6035.3091 1.0831.6629 1.4509 1.0681.613.6747 1.0094 1.5323 1.177 2.549.173 1.0457.1158 2.29-.1676 3.6987-.3269 1.6205-.8555 3.0318-1.5693 4.1867-.6567 1.0641-1.4931 1.9467-2.4862 2.6306-.9482.6498-2.0748 1.1431-3.3485 1.4587-1.2343.3105-2.6415.467-4.185.467h-.9945c-.7111 0-1.4018.2473-1.944.6905-.5435.4525-.9032 1.0707-1.0135 1.7468l-.075.3932-1.2587 7.7013-.0572.2827c-.015.0895-.0409.1342-.0791.1645-.034.0276-.0831.046-.1307.046z" fill="#253b80"/><path d="m58.6162 24c-.0375.2306-.0804.4664-.1287.7086-1.6589 8.1821-7.3341 11.0086-14.5824 11.0086h-3.6905c-.8865 0-1.6334.6184-1.7716 1.4584l-1.8895 11.5124-.535 3.2633c-.0899.5514.3527 1.0487.932 1.0487h6.5456c.7751 0 1.4335-.5411 1.5556-1.2754l.0643-.3195 1.2324-7.5135.0792-.4123c.1207-.7369.7804-1.278 1.5556-1.278h.9789c6.3418 0 11.3063-2.4735 12.7573-9.6314.6061-2.9902.2923-5.487-1.3116-7.2429-.4854-.5295-1.0875-.9688-1.7916-1.327z" fill="#179bd7"/><path d="m57.2864 23.5556c-.2512-.0688-.5105-.1314-.7764-.1877-.2672-.055-.5411-.1038-.823-.1464-.9865-.1502-2.0674-.2215-3.2254-.2215h-9.7746c-.2407 0-.4694.0513-.6741.1439-.4507.204-.7858.6057-.8669 1.0975l-2.0793 12.3969-.0599.3617c.137-.8159.8775-1.4166 1.7563-1.4166h3.6589c7.186 0 12.8126-2.747 14.4572-10.6937.0492-.2353.0904-.4643.1276-.6883-.4161-.2077-.8668-.3855-1.3521-.5369-.1196-.0375-.2433-.0738-.3683-.1089z" fill="#222d65"/><path d="m40.8619 24.0434c.0816-.5127.4186-.9314.8718-1.1427.2073-.0966.4359-.15.678-.15h9.8305c1.1646 0 2.2517.0743 3.2439.2309.2834.0443.5589.0952.8277.1526.2674.0587.5281.1239.7808.1957.1257.0365.2501.0743.3718.1121.488.1579.9413.3444 1.3598.5597.4921-3.0617-.004-5.1463-1.7008-7.0339-1.8706-2.0781-5.2469-2.9678-9.5671-2.9678h-12.5423c-.8825 0-1.6353.6262-1.7717 1.478l-5.2241 32.3062c-.103.6392.4025 1.2158 1.063 1.2158h7.7433l1.9442-12.0341z" fill="#253b80"/><rect height="88" rx="9" stroke="#fff" stroke-width="2" width="88" x="1" y="1"/></svg>

<svg width="90" height="90" viewBox="0 0 90 90" fill="none" xmlns="http://www.w3.org/2000/svg">
<rect x="1" y="1" width="88" height="88" rx="9" fill="white"/>
<path d="M25.2116 61.8858H21.1854C20.9099 61.8858 20.6756 62.0816 20.6326 62.3476L19.0042 72.4446C18.9718 72.6438 19.1296 72.8235 19.3363 72.8235H21.2584C21.5339 72.8235 21.7682 72.6277 21.8112 72.3611L22.2504 69.6378C22.2928 69.3712 22.5277 69.1755 22.8026 69.1755H24.0771C26.7293 69.1755 28.2599 67.9203 28.6597 65.433C28.8398 64.3449 28.6673 63.4899 28.1463 62.8911C27.5741 62.2336 26.5591 61.8858 25.2116 61.8858ZM25.6761 65.5735C25.4559 66.9864 24.3521 66.9864 23.2847 66.9864H22.6772L23.1034 64.3477C23.1287 64.1883 23.27 64.0708 23.4349 64.0708H23.7133C24.4404 64.0708 25.1262 64.0708 25.4806 64.4761C25.692 64.718 25.7567 65.0772 25.6761 65.5735Z" fill="#253B80"/>
<path d="M37.2468 65.528H35.3188C35.1545 65.528 35.0126 65.6455 34.9873 65.805L34.902 66.3324L34.7671 66.1412C34.3497 65.5488 33.419 65.3507 32.49 65.3507C30.3595 65.3507 28.5398 66.9289 28.1854 69.1426C28.0011 70.247 28.2631 71.3029 28.9036 72.0393C29.4911 72.7164 30.3318 72.9985 31.332 72.9985C33.0487 72.9985 34.0006 71.9189 34.0006 71.9189L33.9147 72.4429C33.8823 72.6433 34.0401 72.8229 34.2455 72.8229H35.9822C36.2583 72.8229 36.4915 72.6271 36.535 72.3606L37.577 65.9069C37.61 65.7083 37.4528 65.528 37.2468 65.528ZM34.5593 69.1979C34.3733 70.2752 33.4991 70.9983 32.384 70.9983C31.8242 70.9983 31.3768 70.8227 31.0895 70.4899C30.8045 70.1594 30.6962 69.689 30.7869 69.1651C30.9605 68.0971 31.8495 67.3503 32.9474 67.3503C33.4949 67.3503 33.94 67.5282 34.2332 67.8639C34.5269 68.203 34.6435 68.6763 34.5593 69.1979Z" fill="#253B80"/>
<path d="M47.5149 65.528H45.5774C45.3926 65.528 45.2189 65.6178 45.1141 65.7681L42.442 69.6176L41.3093 65.9184C41.2381 65.6869 41.0196 65.528 40.7724 65.528H38.8685C38.6371 65.528 38.4764 65.7491 38.55 65.9621L40.6841 72.087L38.6778 74.857C38.52 75.0752 38.6789 75.3752 38.9515 75.3752H40.8866C41.0703 75.3752 41.2422 75.2877 41.3464 75.1403L47.7904 66.0433C47.9446 65.8257 47.7863 65.528 47.5149 65.528Z" fill="#253B80"/>
<path d="M53.9296 61.8858H49.9028C49.6279 61.8858 49.3936 62.0816 49.3506 62.3476L47.7222 72.4446C47.6899 72.6438 47.8476 72.8235 48.0531 72.8235H50.1195C50.3114 72.8235 50.4756 72.6864 50.5057 72.4999L50.9678 69.6378C51.0102 69.3712 51.2451 69.1755 51.52 69.1755H52.794C55.4467 69.1755 56.9768 67.9203 57.3771 65.433C57.5578 64.3449 57.3841 63.4899 56.8631 62.8911C56.2915 62.2336 55.2772 61.8858 53.9296 61.8858ZM54.3941 65.5735C54.1745 66.9864 53.0707 66.9864 52.0028 66.9864H51.3958L51.8226 64.3477C51.8479 64.1883 51.988 64.0708 52.1535 64.0708H52.4319C53.1584 64.0708 53.8448 64.0708 54.1992 64.4761C54.4106 64.718 54.4747 65.0772 54.3941 65.5735Z" fill="#179BD7"/>
<path d="M65.964 65.528H64.0371C63.8717 65.528 63.731 65.6455 63.7063 65.805L63.6209 66.3324L63.4855 66.1412C63.0681 65.5488 62.138 65.3507 61.209 65.3507C59.0784 65.3507 57.2593 66.9289 56.9049 69.1426C56.7212 70.247 56.982 71.3029 57.6226 72.0393C58.2113 72.7164 59.0508 72.9985 60.051 72.9985C61.7677 72.9985 62.7196 71.9189 62.7196 71.9189L62.6337 72.4429C62.6013 72.6433 62.7591 72.8229 62.9657 72.8229H64.7018C64.9767 72.8229 65.211 72.6271 65.254 72.3606L66.2966 65.9069C66.3284 65.7083 66.1706 65.528 65.964 65.528ZM63.2765 69.1979C63.0917 70.2752 62.2163 70.9983 61.1013 70.9983C60.5426 70.9983 60.094 70.8227 59.8067 70.4899C59.5217 70.1594 59.4146 69.689 59.5041 69.1651C59.6789 68.0971 60.5667 67.3503 61.6646 67.3503C62.2121 67.3503 62.6572 67.5282 62.9504 67.8639C63.2453 68.203 63.3619 68.6763 63.2765 69.1979Z" fill="#179BD7"/>
<path d="M68.2371 62.1627L66.5845 72.4446C66.5522 72.6438 66.7099 72.8234 66.9154 72.8234H68.5767C68.8528 72.8234 69.0872 72.6277 69.1295 72.3611L70.7591 62.2646C70.7915 62.0654 70.6337 61.8852 70.4282 61.8852H68.5679C68.4037 61.8858 68.2624 62.0032 68.2371 62.1627Z" fill="#179BD7"/>
<path d="M37.4599 52L38.1724 47.6305L36.5853 47.595H29.0068L34.2735 15.3525C34.2898 15.2552 34.343 15.1644 34.4206 15.1C34.4983 15.0355 34.5977 15 34.7012 15H47.4796C51.7218 15 54.6494 15.8523 56.1778 17.5346C56.8944 18.3238 57.3508 19.1485 57.5715 20.0561C57.8031 21.0084 57.8072 22.1461 57.581 23.5338L57.5647 23.6351V24.5242L58.2812 24.9162C58.8847 25.2253 59.3643 25.5791 59.7321 25.9843C60.3451 26.659 60.7415 27.5166 60.9091 28.5333C61.0821 29.579 61.0249 30.8233 60.7415 32.232C60.4146 33.8525 59.886 35.2638 59.1722 36.4187C58.5155 37.4828 57.6791 38.3654 56.686 39.0493C55.7378 39.6991 54.6112 40.1924 53.3375 40.508C52.1032 40.8185 50.696 40.975 49.1525 40.975H48.158C47.4469 40.975 46.7562 41.2223 46.214 41.6655C45.6705 42.118 45.3108 42.7362 45.2005 43.4123L45.1255 43.8055L43.8668 51.5068L43.8096 51.7895C43.7946 51.879 43.7687 51.9237 43.7305 51.954C43.6965 51.9816 43.6474 52 43.5998 52H37.4599Z" fill="#253B80"/>
<path d="M58.6162 24C58.5787 24.2306 58.5358 24.4664 58.4875 24.7086C56.8286 32.8907 51.1534 35.7172 43.9051 35.7172H40.2146C39.3281 35.7172 38.5812 36.3356 38.443 37.1756L36.5535 48.688L36.0185 51.9513C35.9286 52.5027 36.3712 53 36.9505 53H43.4961C44.2712 53 44.9296 52.4589 45.0517 51.7246L45.116 51.4051L46.3484 43.8916L46.4276 43.4793C46.5483 42.7424 47.208 42.2013 47.9832 42.2013H48.9621C55.3039 42.2013 60.2684 39.7278 61.7194 32.5699C62.3255 29.5797 62.0117 27.0829 60.4078 25.327C59.9224 24.7975 59.3203 24.3582 58.6162 24Z" fill="#179BD7"/>
<path d="M57.2864 23.5556C57.0352 23.4868 56.7759 23.4242 56.51 23.3679C56.2428 23.3129 55.9689 23.2641 55.687 23.2215C54.7005 23.0713 53.6196 23 52.4616 23H42.687C42.4463 23 42.2176 23.0513 42.0129 23.1439C41.5622 23.3479 41.2271 23.7496 41.146 24.2414L39.0667 36.6383L39.0068 37C39.1438 36.1841 39.8843 35.5834 40.7631 35.5834H44.422C51.608 35.5834 57.2346 32.8364 58.8792 24.8897C58.9284 24.6544 58.9696 24.4254 59.0068 24.2014C58.5907 23.9937 58.14 23.8159 57.6547 23.6645C57.5351 23.627 57.4114 23.5907 57.2864 23.5556Z" fill="#222D65"/>
<path d="M40.8619 24.0434C40.9435 23.5307 41.2805 23.112 41.7337 22.9007C41.941 22.8041 42.1696 22.7507 42.4117 22.7507H52.2422C53.4068 22.7507 54.4939 22.825 55.4861 22.9816C55.7695 23.0259 56.045 23.0768 56.3138 23.1342C56.5812 23.1929 56.8419 23.2581 57.0946 23.3299C57.2203 23.3664 57.3447 23.4042 57.4664 23.442C57.9544 23.5999 58.4077 23.7864 58.8262 24.0017C59.3183 20.94 58.8222 18.8554 57.1254 16.9678C55.2548 14.8897 51.8785 14 47.5583 14H35.016C34.1335 14 33.3807 14.6262 33.2443 15.478L28.0202 47.7842C27.9172 48.4234 28.4227 49 29.0832 49H36.8265L38.7707 36.9659L40.8619 24.0434Z" fill="#253B80"/>
<rect x="1" y="1" width="88" height="88" rx="9" stroke="white" stroke-width="2"/>
</svg>
